2a8
albertroad.htmlalbertroad.htmlalbertroad.htmlalbertroad.htmlalbertroad.htmlalbertroad.htmlalbertroad.htmlalbertroad.htmlalbertroad.html

T:Three Merry Sisters of Fate, The
M:C|
L:1/8
R:reel
D:Altan: The Red Crow
Z:Devin McCabe
K:A
eaga fece|f~B3 fece|a2ga fecd|eA A/2A/2A eAcd|
!eaga fece|f~B3 fece|a2ga fgaf|e^def =gece||
!:defd edce|f~B3 fBce|defd edcd|eA A/2A/2A eAce:|



albertroad.htmlalbertroad.htmlalbertroad.htmlalbertroad.htmlalbertroad.htmlalbertroad.html
0

